X:0
T:Beth Yw'r Hf i Mi 
M:2/4 
L:1/8 
K:G
|:EB   BA  |  B2    AG  |  FG   AB  |  GF  E2    |  EB   BA  |  B2    AG |
  FG   AF  |  E2    E2    :||:  GF   EG  |  FE   F2    |  GF   EG  |  FE
   F2    |  EB   BA  |  B2    AG  |  FG   AB  |  GF   E2    :||:  GF   E
G  |  AG   FE  |  GA   BB  |  AG   AB  |  GF   EG  |  AG  FE  |  GA   BB
  |  AG   A2    :||  GA   BB  |  AG   AB  |  GF   EB  |  AG   FE  ||
